staff/sergi-ramos/coohappy/coohappy-app/app/assets/btn-send.svg

<svg width="43" height="43" viewBox="0 0 43 43" fill="none" xmlns="http://www.w3.org/2000/svg">
<path d="M21.5 43C33.3741 43 43 33.3741 43 21.5C43 9.62588 33.3741 0 21.5 0C9.62588 0 0 9.62588 0 21.5C0 33.3741 9.62588 43 21.5 43Z" fill="#069B69"/>
<path d="M34.3999 19.3L14.3999 11C13.5999 10.7 12.5999 10.8 11.8999 11.4C11.1999 12 10.8999 12.9 11.0999 13.8L12.8999 20.8H21.5999C21.9999 20.8 22.2999 21.1 22.2999 21.5C22.2999 21.9 21.9999 22.2 21.5999 22.2H12.9999L11.1999 29.2C10.9999 30.1 11.2999 31 11.9999 31.6C12.6999 32.2 13.5999 32.4 14.4999 32L34.4999 23.7C35.3999 23.3 35.9999 22.5 35.9999 21.5C35.8999 20.5 35.2999 19.7 34.3999 19.3Z" fill="white"/>
</svg>

<?xml version="1.0" encoding="utf-8"?>
<!-- Generator: Adobe Illustrator 23.0.3, SVG Export Plug-In . SVG Version: 6.00 Build 0)  -->
<svg version="1.1" id="Capa_1" xmlns="http://www.w3.org/2000/svg" xmlns:xlink="http://www.w3.org/1999/xlink" x="0px" y="0px"
	 viewBox="0 0 43 43" style="enable-background:new 0 0 43 43;" xml:space="preserve">
<style type="text/css">
	.st0{fill:#069B69;}
	.st1{fill:#FFFFFF;}
</style>
<g>
	<circle class="st0" cx="21.5" cy="21.5" r="21.5"/>
	<g>
		<g>
			<path class="st1" d="M34.4,19.3l-20-8.3c-0.8-0.3-1.8-0.2-2.5,0.4c-0.7,0.6-1,1.5-0.8,2.4l1.8,7h8.7c0.4,0,0.7,0.3,0.7,0.7
				c0,0.4-0.3,0.7-0.7,0.7H13l-1.8,7c-0.2,0.9,0.1,1.8,0.8,2.4c0.7,0.6,1.6,0.8,2.5,0.4l20-8.3c0.9-0.4,1.5-1.2,1.5-2.2
				C35.9,20.5,35.3,19.7,34.4,19.3z"/>
		</g>
	</g>
</g>
</svg>
